server/website/public/icons/base/docs.svg

<svg width="48" height="48" viewBox="0 0 48 48" fill="none" xmlns="http://www.w3.org/2000/svg">
<path d="M29.4539 13.454H27.9999V0H9.8199C8.0099 0 6.5459 1.464 6.5459 3.272V44.728C6.5459 46.536 8.0099 48 9.8179 48H38.1819C39.9899 48 41.4539 46.536 41.4539 44.728V13.454H29.4539ZM28.3639 34.364H14.1799V31.636H28.3599V34.364H28.3639ZM33.8179 27.818H14.1819V25.09H33.8179V27.818ZM33.8179 21.272H14.1819V18.546H33.8179V21.272ZM29.4539 12H41.4539L29.4539 0V12Z" fill="black"/>
</svg>

<svg width="48" height="48" fill="none" xmlns="http://www.w3.org/2000/svg"><path d="M29.454 13.454H28V0H9.82a3.271 3.271 0 00-3.274 3.272v41.456A3.27 3.27 0 009.818 48h28.364a3.27 3.27 0 003.272-3.272V13.454h-12zm-1.09 20.91H14.18v-2.728h14.18v2.728h.004zm5.454-6.546H14.182V25.09h19.636v2.728zm0-6.546H14.182v-2.726h19.636v2.726zM29.454 12h12l-12-12v12z" fill="#000"/></svg>
